X: 12498
T: Farewell To Fiunary
R: waltz
M: 3/4
K: Gmajor
|:D2|G4 G2|d4 B2|A4 G2|F4 A2|B4 E2|E4 F2|E4 D2|D4 D2|
E4 E2|G4 G2|A4 B2|d4 d2|e4 e2|d4 B2|A4 G2|G4:|
K: Amaj
|:(3EFG|A3 B A2|ec- c2 A2|B3 c (3cBA|G2 A2 B2|c2 F4|F4 G2|FE- E4|E2 C2 E2|
F3 ^E F2|A2 G2 A2|B4 c2|e4 ce|f3 a f2|e3 c A2|B2 Bc BA|A4:|

